static/logos/videoask-wordmark-color.svg

<svg width="134" height="24" viewBox="0 0 134 24" fill="none" xmlns="http://www.w3.org/2000/svg">
<g clip-path="url(#clip0_1_457)">
<path d="M32.3999 6.92H35.4519L38.5779 14.94L41.7039 6.92H44.7569L39.6029 19.206H37.5519L32.3989 6.92H32.3999ZM59.1479 19.4C57.3399 19.4 55.9479 18.832 54.9719 17.694C54.0099 16.54 53.5299 14.997 53.5299 13.062C53.5299 11.129 54.0099 9.592 54.9709 8.455C55.9479 7.302 57.3409 6.725 59.1469 6.725C59.7469 6.724 60.3389 6.857 60.8809 7.115C61.4349 7.375 61.8509 7.683 62.1269 8.041V1.947H65.1559V19.206H62.1269V17.938C61.9319 18.295 61.5569 18.628 61.0039 18.938C60.4659 19.246 59.8479 19.4 59.1479 19.4ZM59.5629 16.816C60.3929 16.816 61.0689 16.491 61.5899 15.842C62.1269 15.175 62.3959 14.25 62.3959 13.062C62.3959 11.876 62.1269 10.958 61.5899 10.308C61.0689 9.642 60.3929 9.308 59.5629 9.308C58.7329 9.308 58.0489 9.642 57.5109 10.308C56.9739 10.958 56.7049 11.876 56.7049 13.062C56.7049 14.232 56.9749 15.15 57.5109 15.817C58.0489 16.483 58.7329 16.816 59.5629 16.816ZM73.3659 19.4C72.0299 19.4 70.9159 19.092 70.0199 18.474C69.1647 17.8693 68.4894 17.044 68.0659 16.086C67.6625 15.1289 67.4551 14.1006 67.4559 13.062C67.4559 12.022 67.6589 11.022 68.0659 10.064C68.4801 9.10005 69.1572 8.27215 70.0199 7.675C70.9159 7.042 72.0299 6.725 73.3659 6.725C74.6519 6.725 75.7259 7.034 76.5899 7.651C77.427 8.2208 78.0869 9.01475 78.4939 9.942C78.8949 10.84 79.1039 11.812 79.1059 12.794V14.038H70.4359C70.4669 14.51 70.6059 14.956 70.8499 15.378C71.1099 15.801 71.4689 16.15 71.9249 16.426C72.3969 16.686 72.9349 16.816 73.5369 16.816C74.7739 16.816 75.7749 16.231 76.5409 15.062L78.9579 16.329C77.7859 18.377 75.9219 19.401 73.3659 19.401V19.4ZM76.2479 11.746C76.0849 10.998 75.7679 10.39 75.2959 9.918C74.8229 9.446 74.1799 9.211 73.3659 9.211C72.5839 9.211 71.9339 9.463 71.4119 9.966C70.9131 10.4428 70.5796 11.0664 70.4599 11.746H76.2479ZM87.1919 19.4C85.9719 19.4 84.9049 19.116 83.9919 18.547C83.0903 17.9888 82.3564 17.1972 81.8679 16.256C81.3789 15.281 81.1349 14.216 81.1349 13.062C81.1349 11.909 81.3789 10.852 81.8679 9.894C82.3511 8.94222 83.0861 8.14118 83.9929 7.578C84.9049 7.01 85.9709 6.725 87.1919 6.725C88.4139 6.725 89.4799 7.009 90.3919 7.578C91.2952 8.13779 92.0229 8.94034 92.4919 9.894C92.9969 10.852 93.2499 11.909 93.2499 13.062C93.2601 14.1724 92.9999 15.2686 92.4919 16.256C92.0174 17.1993 91.2905 17.9924 90.3919 18.547C89.4799 19.116 88.4139 19.4 87.1919 19.4ZM87.1919 16.816C88.1859 16.816 88.9519 16.451 89.4879 15.72C90.0419 14.988 90.3179 14.102 90.3179 13.062C90.3179 12.022 90.0419 11.137 89.4879 10.406C88.9509 9.674 88.1859 9.309 87.1919 9.309C86.1989 9.309 85.4259 9.674 84.8719 10.405C84.3339 11.137 84.0659 12.022 84.0659 13.062C84.0659 14.102 84.3339 14.988 84.8719 15.72C85.4259 16.451 86.1989 16.816 87.1919 16.816ZM99.2599 19.4C98.1699 19.4 97.2739 19.075 96.5739 18.426C95.8739 17.776 95.5239 16.858 95.5239 15.67C95.5239 14.874 95.7439 14.176 96.1839 13.574C96.6219 12.957 97.2419 12.486 98.0389 12.161C98.8369 11.819 99.7489 11.649 100.774 11.649H102.826V11.113C102.826 10.463 102.622 9.975 102.215 9.65C101.809 9.325 101.296 9.162 100.677 9.162C100.205 9.162 99.7739 9.301 99.3819 9.577C99.0079 9.837 98.7319 10.267 98.5519 10.869L95.9879 10.138C96.2587 9.14524 96.8624 8.27569 97.6979 7.675C98.5599 7.042 99.5539 6.725 100.677 6.725C102.273 6.725 103.51 7.123 104.39 7.919C105.269 8.699 105.708 10.015 105.708 11.868V19.206H103.363L103.046 17.646C102.086 18.816 100.823 19.4 99.2599 19.4ZM99.6749 16.938C100.197 16.938 100.693 16.825 101.166 16.597C101.632 16.387 102.036 16.059 102.338 15.647C102.647 15.224 102.802 14.737 102.802 14.184V13.916H100.579C99.8459 13.916 99.2769 14.062 98.8689 14.354C98.4789 14.63 98.2829 15.062 98.2829 15.646C98.2829 15.988 98.4059 16.288 98.6499 16.549C98.8939 16.809 99.2359 16.939 99.6749 16.939V16.938ZM113.698 19.4C110.93 19.4 109.122 18.174 108.275 15.72L111.011 14.769C111.239 15.484 111.573 16.004 112.012 16.329C112.452 16.654 113.046 16.817 113.795 16.817C114.382 16.817 114.862 16.711 115.236 16.5C115.627 16.272 115.822 15.988 115.822 15.646C115.822 15.322 115.635 15.062 115.261 14.866C114.886 14.656 114.21 14.444 113.234 14.233C110.466 13.631 109.082 12.315 109.082 10.283C109.082 9.585 109.285 8.967 109.692 8.431C110.107 7.87212 110.663 7.43432 111.304 7.163C111.983 6.87176 112.714 6.72269 113.453 6.725C115.651 6.725 117.255 7.643 118.265 9.479L116.091 10.991C115.505 9.869 114.634 9.309 113.478 9.309C113.084 9.30139 112.695 9.40241 112.354 9.601C112.045 9.796 111.89 10.048 111.89 10.357C111.89 10.682 112.045 10.95 112.354 11.161C112.663 11.372 113.25 11.567 114.113 11.746C115.643 12.038 116.774 12.47 117.507 13.038C118.257 13.59 118.631 14.395 118.631 15.451C118.631 16.671 118.158 17.638 117.214 18.352C116.286 19.052 115.114 19.4 113.698 19.4ZM121.858 1.947H124.886V11.478L128.916 6.92H132.579L127.329 12.55L133.142 19.206H129.478L124.886 13.623V19.206H121.858V1.947ZM48.8829 5.336C48.3299 5.336 47.8659 5.15 47.4909 4.776C47.1169 4.402 46.9299 3.938 46.9299 3.386C46.9299 2.834 47.1169 2.37 47.4909 1.996C47.8659 1.623 48.3309 1.436 48.8829 1.436C49.4369 1.436 49.9019 1.623 50.2749 1.996C50.6499 2.37 50.8379 2.834 50.8379 3.386C50.8379 3.938 50.6499 4.402 50.2759 4.776C49.9019 5.15 49.4359 5.336 48.8829 5.336ZM47.3699 6.92H50.3979V19.206H47.3699V6.92ZM17.9709 7.142C17.0232 7.1428 16.114 6.76715 15.4432 6.09768C14.7724 5.4282 14.395 4.51971 14.3939 3.572C14.3942 3.10266 14.4869 2.63796 14.6667 2.20444C14.8466 1.77093 15.11 1.37708 15.4421 1.04539C15.7742 0.713697 16.1683 0.450659 16.602 0.271291C17.0358 0.0919236 17.5006 -0.000260477 17.9699 2.24e-06C18.4393 -0.000523307 18.9043 0.0914337 19.3381 0.270621C19.772 0.449809 20.1664 0.712716 20.4986 1.04433C20.8309 1.37594 21.0946 1.76976 21.2746 2.20329C21.4546 2.63682 21.5475 3.10157 21.5479 3.571C21.5475 4.04043 21.4546 4.50518 21.2746 4.93872C21.0946 5.37225 20.8309 5.76607 20.4986 6.09768C20.1664 6.42929 19.772 6.6922 19.3381 6.87138C18.9043 7.05057 18.4393 7.14253 17.9699 7.142H17.9709ZM7.17786 7.142C6.70851 7.14253 6.24366 7.0506 5.80984 6.87148C5.37602 6.69235 4.98173 6.42954 4.64948 6.09803C4.31724 5.76653 4.05354 5.37283 3.87344 4.93941C3.69335 4.50599 3.60038 4.04135 3.59986 3.572C3.60012 3.10249 3.69289 2.63763 3.87287 2.20398C4.05285 1.77033 4.3165 1.3764 4.64878 1.04468C4.98105 0.712964 5.37543 0.449967 5.80938 0.270717C6.24333 0.0914668 6.70834 -0.000523309 7.17786 2.24e-06C7.6472 -0.000391891 8.11203 0.0916621 8.5458 0.270908C8.97956 0.450155 9.37378 0.713083 9.70593 1.04468C10.0381 1.37628 10.3017 1.77005 10.4817 2.20352C10.6617 2.63699 10.7545 3.10166 10.7549 3.571C10.7545 4.04035 10.6617 4.50502 10.4817 4.93848C10.3017 5.37195 10.0381 5.76573 9.70593 6.09732C9.37378 6.42892 8.97956 6.69185 8.5458 6.8711C8.11203 7.05034 7.6472 7.1424 7.17786 7.142ZM1.36686 11.589C0.520852 11.589 -0.149148 12.317 0.0288523 13.143C0.652921 15.9944 2.23337 18.5466 4.50783 20.3759C6.7823 22.2053 9.61399 23.2018 12.5329 23.2C18.6669 23.2 23.7929 18.893 25.0379 13.143C25.2159 12.317 24.5459 11.589 23.6999 11.589H1.36686Z" fill="black"/>
</g>
<defs>
<clipPath id="clip0_1_457">
<rect width="134" height="24" fill="white"/>
</clipPath>
</defs>
</svg>

<svg xmlns="http://www.w3.org/2000/svg" width="357.333" height="64" fill="none" viewBox="0 0 134 24"><g clip-path="url(#a)"><path fill="#000" d="M32.4 6.92h3.052l3.126 8.02 3.126-8.02h3.053l-5.154 12.286h-2.051L32.399 6.92ZM59.148 19.4c-1.808 0-3.2-.568-4.176-1.706-.962-1.154-1.442-2.697-1.442-4.632 0-1.933.48-3.47 1.44-4.607.978-1.153 2.37-1.73 4.177-1.73.6-.001 1.192.132 1.734.39.554.26.97.568 1.246.926V1.947h3.029v17.259h-3.03v-1.268c-.194.357-.57.69-1.122 1-.538.308-1.156.462-1.856.462Zm.415-2.584c.83 0 1.506-.325 2.027-.974.537-.667.806-1.592.806-2.78 0-1.186-.27-2.104-.806-2.754-.521-.666-1.197-1-2.027-1-.83 0-1.514.334-2.052 1-.537.65-.806 1.568-.806 2.754 0 1.17.27 2.088.806 2.755.538.666 1.222.999 2.052.999ZM73.366 19.4c-1.336 0-2.45-.308-3.346-.926a5.794 5.794 0 0 1-1.954-2.388 7.77 7.77 0 0 1-.61-3.024c0-1.04.203-2.04.61-2.998a5.589 5.589 0 0 1 1.954-2.389c.896-.633 2.01-.95 3.346-.95 1.286 0 2.36.309 3.224.926a5.394 5.394 0 0 1 1.904 2.291c.4.898.61 1.87.612 2.852v1.244h-8.67c.03.472.17.918.414 1.34.26.423.619.772 1.075 1.048.472.26 1.01.39 1.612.39 1.237 0 2.238-.585 3.004-1.754l2.417 1.267c-1.172 2.048-3.036 3.072-5.592 3.072V19.4Zm2.882-7.654c-.163-.748-.48-1.356-.952-1.828-.473-.472-1.116-.707-1.93-.707-.782 0-1.432.252-1.954.755a3.24 3.24 0 0 0-.952 1.78h5.788ZM87.192 19.4c-1.22 0-2.287-.284-3.2-.853a5.88 5.88 0 0 1-2.124-2.291c-.49-.975-.733-2.04-.733-3.194 0-1.153.244-2.21.733-3.168a5.837 5.837 0 0 1 2.125-2.316c.912-.568 1.978-.853 3.199-.853 1.222 0 2.288.284 3.2.853a5.667 5.667 0 0 1 2.1 2.316c.505.958.758 2.015.758 3.168a6.844 6.844 0 0 1-.758 3.194 5.704 5.704 0 0 1-2.1 2.291c-.912.569-1.978.853-3.2.853Zm0-2.584c.994 0 1.76-.365 2.296-1.096.554-.732.83-1.618.83-2.658 0-1.04-.276-1.925-.83-2.656-.537-.732-1.302-1.097-2.296-1.097-.993 0-1.766.365-2.32 1.096-.538.732-.806 1.617-.806 2.657s.268 1.926.806 2.658c.554.731 1.327 1.096 2.32 1.096ZM99.26 19.4c-1.09 0-1.986-.325-2.686-.974-.7-.65-1.05-1.568-1.05-2.756 0-.796.22-1.494.66-2.096.438-.617 1.058-1.088 1.855-1.413.798-.342 1.71-.512 2.735-.512h2.052v-.536c0-.65-.204-1.138-.611-1.463-.406-.325-.919-.488-1.538-.488a2.2 2.2 0 0 0-1.295.415c-.374.26-.65.69-.83 1.292l-2.564-.731a4.488 4.488 0 0 1 1.71-2.463c.862-.633 1.856-.95 2.979-.95 1.596 0 2.833.398 3.713 1.194.879.78 1.318 2.096 1.318 3.949v7.338h-2.345l-.317-1.56c-.96 1.17-2.223 1.754-3.786 1.754Zm.415-2.462c.522 0 1.018-.113 1.491-.341.466-.21.87-.538 1.172-.95.309-.423.464-.91.464-1.463v-.268h-2.223c-.733 0-1.302.146-1.71.438-.39.276-.586.708-.586 1.292 0 .342.123.642.367.903.244.26.586.39 1.025.39v-.001Zm14.023 2.462c-2.768 0-4.576-1.226-5.423-3.68l2.736-.951c.228.715.562 1.235 1.001 1.56.44.325 1.034.488 1.783.488.587 0 1.067-.106 1.441-.317.391-.228.586-.512.586-.854 0-.324-.187-.584-.561-.78-.375-.21-1.051-.422-2.027-.633-2.768-.602-4.152-1.918-4.152-3.95 0-.698.203-1.316.61-1.852a3.902 3.902 0 0 1 1.612-1.268 5.407 5.407 0 0 1 2.149-.438c2.198 0 3.802.918 4.812 2.754l-2.174 1.512c-.586-1.122-1.457-1.682-2.613-1.682a2.151 2.151 0 0 0-1.124.292c-.309.195-.464.447-.464.756 0 .325.155.593.464.804.309.211.896.406 1.759.585 1.53.292 2.661.724 3.394 1.292.75.552 1.124 1.357 1.124 2.413 0 1.22-.473 2.187-1.417 2.901-.928.7-2.1 1.048-3.516 1.048Zm8.16-17.453h3.028v9.531l4.03-4.558h3.663l-5.25 5.63 5.813 6.656h-3.664l-4.592-5.583v5.583h-3.028V1.947ZM48.883 5.336c-.553 0-1.017-.186-1.392-.56-.374-.374-.561-.838-.561-1.39 0-.552.187-1.016.56-1.39.376-.373.84-.56 1.393-.56.554 0 1.019.187 1.392.56.375.374.563.838.563 1.39 0 .552-.188 1.016-.562 1.39-.374.374-.84.56-1.393.56ZM47.37 6.92h3.028v12.286H47.37V6.92Zm-29.4.222a3.574 3.574 0 0 1-3.303-4.938A3.574 3.574 0 0 1 19.338.271a3.573 3.573 0 0 1 1.937 4.668 3.573 3.573 0 0 1-3.305 2.203Zm-10.792 0a3.574 3.574 0 0 1-3.305-4.938A3.574 3.574 0 0 1 7.178 0a3.574 3.574 0 0 1 3.304 4.938 3.574 3.574 0 0 1-3.304 2.204Zm-5.811 4.447c-.846 0-1.516.728-1.338 1.554A12.792 12.792 0 0 0 12.533 23.2c6.134 0 11.26-4.307 12.505-10.057.178-.826-.492-1.554-1.338-1.554H1.367Z"/></g><defs><clipPath id="a"><path fill="#fff" d="M0 0h134v24H0z"/></clipPath></defs></svg>
